images/call-missed.svg

<?xml version="1.0" encoding="utf-8"?>
<!-- Generated by IcoMoon.io -->
<!DOCTYPE svg PUBLIC "-//W3C//DTD SVG 1.1//EN" "http://www.w3.org/Graphics/SVG/1.1/DTD/svg11.dtd">
<svg version="1.1" xmlns="http://www.w3.org/2000/svg" xmlns:xlink="http://www.w3.org/1999/xlink" width="30" height="30" viewBox="0 0 30 30">
<g>
	<line stroke-width="1" x1="" y1="" x2="" y2="" stroke="#449FDB" opacity=""></line>
</g>
	<path d="M22.886 8.548l2.327 2.329c-0.174 0.703-0.432 1.336-0.745 1.889l-2.958-2.958-2.963 2.962c-0.312-0.553-0.57-1.184-0.747-1.884l2.352-2.352-0.002-0.002c0.027-0.029 0.040-0.031 0.059-0.042-0.022-0.007-0.043-0.014-0.074-0.045-0.005-0.004-0.009-0.007-0.014-0.011l-2.318-2.318c0.177-0.698 0.435-1.322 0.745-1.873l2.949 2.949 2.963-2.963c0.312 0.548 0.57 1.173 0.747 1.866l-2.352 2.352 0.003 0.002c-0.025 0.029-0.041 0.034-0.059 0.042 0.022 0.007 0.043 0.014 0.076 0.047 0.002 0.005 0.007 0.007 0.011 0.010zM18.357 21.646l0.022 0.023c0.606-0.336 1.208-0.739 1.801-1.171l5.686 5.034c-1.199 1.036-2.499 1.885-3.868 2.524-3.639-0.671-8.3-3.376-12.484-7.563-4.185-4.181-6.887-8.837-7.563-12.473 0.64-1.372 1.49-2.674 2.528-3.875l5.037 5.69c-0.433 0.593-0.835 1.195-1.171 1.801l0.022 0.022c-0.591 1.293 0.774 4.11 3.325 6.664 2.554 2.551 5.371 3.916 6.665 3.324z" fill="#000000"></path>
</svg>

<?xml version="1.0" encoding="UTF-8" standalone="no"?>
<!-- Created with Inkscape (http://www.inkscape.org/) -->

<svg
   xmlns:dc="http://purl.org/dc/elements/1.1/"
   xmlns:cc="http://creativecommons.org/ns#"
   xmlns:rdf="http://www.w3.org/1999/02/22-rdf-syntax-ns#"
   xmlns:svg="http://www.w3.org/2000/svg"
   xmlns="http://www.w3.org/2000/svg"
   xmlns:inkscape="http://www.inkscape.org/namespaces/inkscape"
   version="1.1"
   width="30"
   height="30"
   viewBox="0 0 30 30"
   id="svg2">
  <metadata
     id="metadata10">
    <rdf:RDF>
      <cc:Work
         rdf:about="">
        <dc:format>image/svg+xml</dc:format>
        <dc:type
           rdf:resource="http://purl.org/dc/dcmitype/StillImage" />
      </cc:Work>
    </rdf:RDF>
  </metadata>
  <defs
     id="defs8" />
  <path
     d="m 22.886,8.548 2.327,2.33 c -0.174,0.702 -0.432,1.335 -0.745,1.888 L 21.51,9.808 18.547,12.77 C 18.235,12.217 17.977,11.586 17.8,10.886 L 20.152,8.534 20.15,8.532 C 20.177,8.502 20.19,8.502 20.21,8.49 20.187,8.483 20.166,8.476 20.135,8.445 l -0.014,-0.01 -2.31,-2.32 c 0.18,-0.697 0.44,-1.32 0.75,-1.872 l 2.95,2.95 2.96,-2.964 c 0.313,0.54 0.57,1.17 0.75,1.86 l -2.36,2.35 0.002,0.002 c -0.027,0.028 -0.04,0.033 -0.06,0.04 0.02,0.008 0.042,0.015 0.075,0.048 0.002,0.005 0.007,0.007 0.01,0.01 z m -4.53,13.098 0.023,0.023 c 0.6,-0.34 1.2,-0.74 1.8,-1.18 l 5.68,5.03 c -1.2,1.037 -2.5,1.886 -3.87,2.525 -3.64,-0.67 -8.3,-3.376 -12.487,-7.563 -4.18,-4.18 -6.884,-8.835 -7.56,-12.47 0.64,-1.373 1.49,-2.675 2.53,-3.876 L 9.51,9.83 c -0.432,0.593 -0.834,1.195 -1.17,1.8 l 0.02,0.023 c -0.59,1.293 0.776,4.11 3.327,6.664 2.554,2.55 5.37,3.915 6.665,3.323 z"
     inkscape:connector-curvature="0"
     id="path4" />
</svg>
